usr/share/icons/biglinux-icons-material/scalable/apps/taxi.svg

<?xml version="1.0" encoding="UTF-8" standalone="no"?>
<svg
   width="24"
   height="24"
   viewBox="0 0 24 24"
   fill="none"
   version="1.1"
   id="svg154"
   sodipodi:docname="taxi.svg"
   inkscape:version="1.2.2 (b0a8486541, 2022-12-01)"
   xmlns:inkscape="http://www.inkscape.org/namespaces/inkscape"
   xmlns:sodipodi="http://sodipodi.sourceforge.net/DTD/sodipodi-0.dtd"
   xmlns:xlink="http://www.w3.org/1999/xlink"
   xmlns="http://www.w3.org/2000/svg"
   xmlns:svg="http://www.w3.org/2000/svg"
   xmlns:sketch="http://www.bohemiancoding.com/sketch/ns">
  <sodipodi:namedview
     id="namedview156"
     pagecolor="#ffffff"
     bordercolor="#000000"
     borderopacity="1"
     inkscape:showpageshadow="0"
     inkscape:pageopacity="1"
     inkscape:pagecheckerboard="false"
     inkscape:deskcolor="#ffffff"
     showgrid="true"
     inkscape:zoom="22.627417"
     inkscape:cx="3.0714951"
     inkscape:cy="8.1096309"
     inkscape:window-width="1920"
     inkscape:window-height="1052"
     inkscape:window-x="0"
     inkscape:window-y="0"
     inkscape:window-maximized="1"
     inkscape:current-layer="svg154"
     showguides="true"
     guidecolor="#ff0000"
     guideopacity="1"
     inkscape:lockguides="true"
     showborder="true"
     borderlayer="true">
    <inkscape:grid
       type="xygrid"
       id="grid356"
       color="#000000"
       opacity="0.10196078"
       empcolor="#000000"
       empopacity="0.10196078"
       snapvisiblegridlinesonly="true"
       enabled="true"
       visible="true"
       dotted="false" />
    <sodipodi:guide
       position="4,12"
       orientation="-1,0"
       id="guide764"
       inkscape:locked="true"
       inkscape:label="left-circle"
       inkscape:color="rgb(255,0,0)" />
    <sodipodi:guide
       position="5,12"
       orientation="-1,0"
       id="guide2218"
       inkscape:locked="true"
       inkscape:label="left-square"
       inkscape:color="rgb(255,0,0)" />
    <sodipodi:guide
       position="12,20"
       orientation="0,1"
       id="guide2220"
       inkscape:locked="true"
       inkscape:label="top-circle"
       inkscape:color="rgb(255,0,0)" />
    <sodipodi:guide
       position="12,5"
       orientation="0,1"
       id="guide2222"
       inkscape:locked="true"
       inkscape:label="bottom-square"
       inkscape:color="rgb(255,0,0)" />
    <sodipodi:guide
       position="12,4"
       orientation="0,1"
       id="guide2224"
       inkscape:locked="true"
       inkscape:label="bottom-circle"
       inkscape:color="rgb(255,0,0)" />
    <sodipodi:guide
       position="19,12"
       orientation="-1,0"
       id="guide2226"
       inkscape:locked="true"
       inkscape:label="right-square"
       inkscape:color="rgb(255,0,0)" />
    <sodipodi:guide
       position="20,12"
       orientation="-1,0"
       id="guide2228"
       inkscape:locked="true"
       inkscape:label="right-circle"
       inkscape:color="rgb(255,0,0)" />
    <sodipodi:guide
       position="12,19"
       orientation="0,1"
       id="guide2230"
       inkscape:locked="true"
       inkscape:label="top-square"
       inkscape:color="rgb(255,0,0)" />
    <sodipodi:guide
       position="12,12"
       orientation="1,0"
       id="guide765"
       inkscape:locked="true" />
    <sodipodi:guide
       position="12,12"
       orientation="0,-1"
       id="guide767"
       inkscape:locked="true" />
    <sodipodi:guide
       position="12,12"
       orientation="0.70710678,0.70710678"
       id="guide2266"
       inkscape:locked="true"
       inkscape:label=""
       inkscape:color="rgb(255,0,0)" />
    <sodipodi:guide
       position="12,12"
       orientation="-0.70710678,0.70710678"
       id="guide2994"
       inkscape:locked="true"
       inkscape:label=""
       inkscape:color="rgb(255,0,0)" />
    <sodipodi:guide
       position="3,12"
       orientation="-1,0"
       id="guide131543"
       inkscape:locked="true"
       inkscape:label="left-horizontal"
       inkscape:color="rgb(255,0,0)" />
    <sodipodi:guide
       position="12,21"
       orientation="0,1"
       id="guide131545"
       inkscape:locked="true"
       inkscape:label="top-vertical"
       inkscape:color="rgb(255,0,0)" />
    <sodipodi:guide
       position="21,12"
       orientation="-1,0"
       id="guide131547"
       inkscape:locked="true"
       inkscape:label="right-horizontal"
       inkscape:color="rgb(255,0,0)" />
    <sodipodi:guide
       position="12,3"
       orientation="0,1"
       id="guide131549"
       inkscape:locked="true"
       inkscape:label="bottom-vertical"
       inkscape:color="rgb(255,0,0)" />
  </sodipodi:namedview>
  <defs
     id="defs152">
    <radialGradient
       id="radialGradient66380"
       cx="0"
       cy="0"
       r="1"
       gradientUnits="userSpaceOnUse"
       gradientTransform="translate(12 1) rotate(90) scale(22)">
      <stop
         stop-color="#8FC8FF"
         id="stop66376"
         offset="0"
         style="stop-color:#68a8f5;stop-opacity:1;" />
      <stop
         offset="1"
         stop-color="#0056A8"
         id="stop66378"
         style="stop-color:#cccccc;stop-opacity:1;" />
    </radialGradient>
    <radialGradient
       id="paint0_radial_29_23"
       cx="0"
       cy="0"
       r="1"
       gradientUnits="userSpaceOnUse"
       gradientTransform="translate(12 1) rotate(90) scale(22)">
      <stop
         stop-color="#8FC8FF"
         id="stop147"
         offset="0"
         style="stop-color:#f6f6f6;stop-opacity:1;" />
      <stop
         offset="1"
         stop-color="#0056A8"
         id="stop149"
         style="stop-color:#cfcfcf;stop-opacity:1;" />
    </radialGradient>
    <radialGradient
       id="paint0_radial_10_2"
       cx="0"
       cy="0"
       r="1"
       gradientUnits="userSpaceOnUse"
       gradientTransform="matrix(-10.999959,21.999967,-21.999967,-10.999959,17.5,1)"
       xlink:href="#paint0_radial_29_23">
      <stop
         stop-color="#777777"
         id="stop2847" />
      <stop
         offset="1"
         stop-color="#222222"
         id="stop2849" />
    </radialGradient>
    <radialGradient
       fx="0"
       fy="0"
       cx="0"
       cy="0"
       r="1"
       gradientUnits="userSpaceOnUse"
       gradientTransform="matrix(0,16.5,-16.5,0,8.999996,0.750012)"
       spreadMethod="pad"
       id="radialGradient3666-6">
      <stop
         style="stop-color:#ffffff;stop-opacity:1;"
         offset="0"
         id="stop3662-7" />
      <stop
         style="stop-color:#6a7cf1;stop-opacity:1;"
         offset="1"
         id="stop3664-5" />
    </radialGradient>
    <linearGradient
       id="a"
       x2="0"
       y1="1"
       y2="47"
       gradientTransform="matrix(1.1739,0,0,1.1739,3.826,3.826)"
       gradientUnits="userSpaceOnUse">
      <stop
         stop-color="#9584f4"
         offset="0"
         id="stop76422" />
      <stop
         stop-color="#8471f2"
         offset="1"
         id="stop76424" />
    </linearGradient>
    <linearGradient
       id="a-5"
       x1="7.9000001"
       x2="56.169998"
       y1="19.867001"
       y2="19.867001"
       gradientUnits="userSpaceOnUse">
      <stop
         stop-color="#fff"
         stop-opacity=".454"
         offset="0"
         id="stop101157" />
      <stop
         stop-color="#fff"
         stop-opacity=".276"
         offset="1"
         id="stop101159" />
    </linearGradient>
    <clipPath
       id="a-3">
      <circle
         cx="8.467"
         cy="288.53"
         r="6.8790002"
         fill="#d86eb0"
         stroke-opacity="0.039"
         stroke-width="0.491"
         style="paint-order:stroke markers fill"
         id="circle105957" />
    </clipPath>
    <filter
       id="a-6"
       x="-0.10481395"
       y="-0.11112434"
       width="1.2096279"
       height="1.2222487"
       color-interpolation-filters="sRGB">
      <feGaussianBlur
         stdDeviation=".392"
         id="feGaussianBlur146622" />
    </filter>
    <filter
       id="b"
       x="-0.069428573"
       y="-0.24300001"
       width="1.1388571"
       height="1.486"
       color-interpolation-filters="sRGB">
      <feGaussianBlur
         stdDeviation="1.215"
         id="feGaussianBlur163335" />
    </filter>
    <linearGradient
       id="c"
       x2="0"
       y1="28"
       y2="20"
       gradientTransform="matrix(3.4116249,0,0,3.4116249,-49.878996,-49.878996)"
       gradientUnits="userSpaceOnUse">
      <stop
         stop-color="#5c431c"
         offset="0"
         id="stop163330"
         style="stop-color:#010100;stop-opacity:1;" />
      <stop
         stop-color="#6b4e21"
         offset="1"
         id="stop163332" />
    </linearGradient>
  </defs>
  <path
     d="M 50,5 C 9.0909092,5 5,25.454546 5,50 5,82.727274 17.272728,95 50,95 82.727274,95 95,82.727274 95,50 95,25.454546 90.909093,5 50,5 Z"
     sketch:type="MSShapeGroup"
     id="path6"
     style="font-variation-settings:normal;display:inline;opacity:1;vector-effect:none;fill:#ffe511;fill-opacity:1;stroke-width:4.56656;stroke-linecap:butt;stroke-linejoin:miter;stroke-miterlimit:4;stroke-dasharray:none;stroke-dashoffset:0;stroke-opacity:1;-inkscape-stroke:none;stop-color:#000000;stop-opacity:1"
     sodipodi:nodetypes="sssss"
     inkscape:label="Shape"
     transform="matrix(0.24444444,0,0,0.24444444,-0.22222222,-0.22222222)" />
  <g
     id="g163842"
     transform="matrix(0.16749455,0,0,0.16749455,6.6401744,6.6401744)">
    <path
       d="M -15.762748,18.353501 V 32 H -2.1162486 V 18.353501 Z M -2.1162486,32 V 45.646499 H 11.530251 V 32 Z M 11.530251,32 H 25.17675 V 18.353501 H 11.530251 Z m 13.646499,0 v 13.646499 h 13.6465 V 32 Z m 13.6465,0 H 52.469749 V 18.353501 H 38.82325 Z m 13.646499,0 v 13.646499 h 13.6465 V 32 Z m 13.6465,0 H 79.762748 V 18.353501 H 66.116249 Z"
       fill="url(#c)"
       id="path163350"
       style="fill:#000000;stroke-width:2.27442;fill-opacity:1" />
  </g>
</svg>

<svg xmlns="http://www.w3.org/2000/svg" width="24" height="24" fill="none"><defs><radialGradient id="a" cx="0" cy="0" r="1" gradientTransform="matrix(0 22 -22 0 12 1)" gradientUnits="userSpaceOnUse"><stop offset="0" stop-color="#8FC8FF" style="stop-color:#f6f6f6;stop-opacity:1"/><stop offset="1" stop-color="#0056A8" style="stop-color:#cfcfcf;stop-opacity:1"/></radialGradient><linearGradient id="b" x2="0" y1="28" y2="20" gradientTransform="matrix(3.41162 0 0 3.41162 -49.879 -49.879)" gradientUnits="userSpaceOnUse"><stop offset="0" stop-color="#5c431c" style="stop-color:#010100;stop-opacity:1"/><stop offset="1" stop-color="#6b4e21"/></linearGradient></defs><path d="M50 5C9.09 5 5 25.455 5 50c0 32.727 12.273 45 45 45 32.727 0 45-12.273 45-45 0-24.545-4.09-45-45-45Z" style="font-variation-settings:normal;display:inline;opacity:1;vector-effect:none;fill:#ffe511;fill-opacity:1;stroke-width:4.56656;stroke-linecap:butt;stroke-linejoin:miter;stroke-miterlimit:4;stroke-dasharray:none;stroke-dashoffset:0;stroke-opacity:1;-inkscape-stroke:none;stop-color:#000;stop-opacity:1" transform="matrix(.24444 0 0 .24444 -.222 -.222)"/><path fill="url(#b)" d="M-15.763 18.354V32h13.647V18.354ZM-2.116 32v13.646H11.53V32Zm13.646 0h13.647V18.354H11.53Zm13.647 0v13.646h13.646V32Zm13.646 0H52.47V18.354H38.823Zm13.647 0v13.646h13.646V32Zm13.646 0h13.647V18.354H66.116Z" style="fill:#000;stroke-width:2.27442;fill-opacity:1" transform="matrix(.1675 0 0 .1675 6.64 6.64)"/></svg>
